X: 8822
T: Cuil Aodha, The
R: jig
M: 6/8
K: Amajor
a|age dBe|ABA c2d|e2c dBA|GEE cdB|
ABA ABA|B3 gab|age dBe|1 ABA A2:|2 ABA Ace||
aba aga|bee gab|age ded|dBA GAB|
A2a aga|b2e gab|age dBe|1 ABA Ace:|2 ABA A2||

